X:1
T:Fig Leaf
T:“FIG   LEAF”
T:A  High  Class  Rag.
T:By  SCOTT  JOPLIN. Composer of “Maple Leaf Rag.”
T: NOTE.- Do not play this piece fast.It is never right to play “Ragtime” fast. Composer.
T:Public Domain
T:Public Domain
T:Public Domain
T:Public Domain
T:Public Domain
C:Scott Joplin
Z:Public Domain
%%score { ( 1 3 ) | ( 2 4 ) }
L:1/8
Q:1/4=72
M:2/4
K:Bb
V:1 treble nm="Piano"
V:3 treble 
V:2 bass 
V:4 bass 
V:1
!mf!"^Slow March Tempo" (G/_G/F/B/-) (B/A/B) | (c/_c/B/)d/- (d/^c/d) | (f/^c/d/A/) B/G_G/ | %3
 F z !>![FAcf]2 |:!mf! (F/B/d/f/-) f/(B/c/d/) | (A/B/G/)F/- (F/^F/G/^G/) | (A/c/e/g/-) (g/_g/f) | %7
 (B/d/f/g/-) (g/_g/f) | (F/B/d/f/-) f/(B/c/d/) | (A/B/G/!<(!F/-) (F/G/^G/d/)!<)! | %10
!<(! (A/c/f/d/-) (d/g/c/a/)!<)! | [Af]!>(!(_e/c/ A/_A/G/_G/)!>)! |!mf! (F/B/d/f/-) f/(B/c/d/) | %13
 (A/B/G/F/-) F/(^F/G/^G/) | (A/c/e/g/-) (g/_g/f) | (B/d/f/g/-)!<(! (g/_g/f)!<)! | %16
!f! [Gc]>[ceg]- [cegc'][ebe'] | [dbd']/[Bdb][G=Bg]/- g/f/d | d/cf/- f/d/c |1 %19
!>(! ([DB]2 [_EF]2)!>)! :|2 [DB]2- [DB][Ff] |:!f! ([fa]/[gb]/[ac']/[fa]/) [ce]/[eg][df]/- | %22
 ([df]/[^c=e]/[df]/[Bd]/-) [Bd]F | ([Ac]/[Bd]/[ce]/[Ac]/) G/AG/- | (([CG]2 [DF]))[Ff] | %25
 ([fa]/[gb]/[ac']/[fa]/) [ce]/[eg][df]/- | ([df]/[^c=e]/[df]/[Bd]/-) [Bd]/(b/c'/^c'/) | %27
 (d'/=e'/^f'/!8va(!d''/ c''/b'/a'/d''/ | g')!8va)!([Gg]/[_G_g]/ [Ff])f | %29
 ([fa]/[gb]/[ac']/[fa]/) [ce]/[eg][df]/- | ([df]/[^c=e]/[df]/[Bd]/-) [Bd]F | %31
 ([Ac]/[Bd]/[ce]/[Ac]/) (G/A)G/ | [D^F]2- [DF]D | (E/F/G/B/-) (B/c/d) | (e/f/g/b/-) (b/c'/d') | %35
 ([Fd]/[DB][EAc]/-) c/d/c |1 [DFB]f/f/ [fg][f^g] :|2 ([DFB]2 [_EF]2) || %38
!mf! (F/B/d/f/- f/)(B/c/d/) | (A/B/G/F/-) (F/^F/G/^G/) | (A/c/e/g/-) (g/_g/f) | %41
 (B/d/f/g/-) (g/_g/f) | (F/B/d/f/-) f/(B/c/d/) | (A/B/G/F/-)!<(! (F/G/^G/d/)!<)! | %44
!<(! (A/c/f/d/-) (d/g/c/!<)!a/) | [Af]!>(!(_e/c/ A/_A/G/_G/)!>)! |!mf! (F/B/d/f/-) f/(B/c/d/) | %47
 (A/B/G/F/-) (F/^F/G/^G/) | (A/c/e/g/-) (g/_g/f) | (B/d/f/g/-)!<(! (g/_g/f)!<)! | %50
!f! [Gc]>[ceg]- [cegc'][ebe'] | [dbd']/[Bdb][G=Bg]/- g/f/d | d/cf/- f/d/c | [DFB]2 [Bdfb] z |: %54
[K:Eb]!p! ([DGd]/[EGe]/[CEGc]/[B,EGB]/-) ([B,EGB]/[^F=A^f]/[GBg]/[Bb]/) | %55
 ([dgd']/[ege']/[cegc']/[Begb]/-) ([Begb]/[^f=a^f']/[gbg']/[=f_a=f']/-) | %56
 [faf']/[ee']/[cc']/[ee']/- [ee']/[Ff]/[^F^f]/[Gg]/- | g/[Be]/^f [=Fd=f]2 | %58
 ([DGd]/[EGe]/[CEGc]/[B,EGB]/-) ([B,EGB]/[^F=A^f]/[GBg]/[Bb]/) | %59
 ([dgd']/[ege']/[cegc']/[Begb]/-!<(! [Begb])[cgbc']!<)! | %60
!<(! [dgbd']/[gg']/!8va(![bb']/!<)![d'd'']/!<(! [e'e'']/[^g^g']/[=a=a']/!<)![d'd'']/!8va)! | %61
 ([gg']/d'/b/g/)!>(! d[D_Ad]!>)! | %62
!p! ([DGd]/[EGe]/[CEGc]/)[B,EGB]/- [B,EGB]/([^F=A^f]/[GBg]/[Bb]/) | %63
 ([dgd']/[ege']/[cegc']/[Begb]/-) [Begb]/!<(![^f=a^f']/[gbg']/[bb']/-!<)! | %64
!<(! [bb']/[gg']/[=e=e']/!<)![_d_d']/- [dd']/[cc']/!mf![=B=b]/[cc']/- | %65
 [cc']/([_d_d']/[cc']/[=B=b]/ [cc']2) | (_g'/d'/e'/c'/ [ce_g=a]) z | (_g/d/e/c/) [CE=A]2 | %68
 [B,EB]/[CEc][C=EB]/- (B/_A/G) |1 (G/E/)F [G,B,E]B :|2 (G/E/)F [G,B,E] z |: %71
!mf!{c^c} d([Bdfb]/[=A=a]/ [Bdfb]/[Aa]/[Bdfb]/[Aa]/) | [Bdfb]/[cc'][Bdfb]/- [Bdfb]2 | %73
{cd} e([Begb]/[=A=a]/ [Begb]/[Aa]/[Begb]/[Aa]/) | [Begb]/[cc'][Begb]/- [Begb]2 | %75
{a=a} b([B_db]/[=A=a]/ [Bdb]/[d_f_d']/[_ce_c']/[Bdb]/) | [B_db]/[_A_c_a][Acea]/- [Acea]2 | %77
{EF} _G([Ge_g]/[Aa]/ [=Aef=a]/[^G^g]/[Aefa]) | [Bdfb][Bb]/[Bb]/ [Bb] z | %79
{c^c} d([Bdfb]/[=A=a]/ [Bdfb]/[Aa]/[Bdfb]/[Aa]/) | [Bdfb]/[cc'][Bdfb]/- [Bdfb]2 | %81
{cd} e([Begb]/[=A=a]/ [Begb]/[Aa]/[Begb]/[Aa]/) | [Begb]/[cc'][Begb]/- [Begb][B,D_A] | %83
!mp! [B,EG]/[B,EG][=B,FG]/- [B,FG][_B,FG] | [B,=EG][B,EG] (G<F) | [_A,EF]/[A,EF]([A,DF]/- FB) |1 %86
 [G,B,E]!^!B/!^!B/ !^!B z :|2 [G,B,E]2 [EGBe] z!fine! |] %88
V:2
 (G,/_G,/F,/B,/-) (B,/A,/B,) | (C/_C/B,/)D/- (D/^C/D) | (F/^C/D/A,/) B,/G,_G,/ | %3
 F, z !>![F,,F,]2 |: [B,,B,][F,B,D] D,[F,B,D] | E,[G,B,E] ([D,D][_D,_D]) | %6
 [C,C][F,A,E] [F,,F,][F,A,E] | [B,,B,][F,B,D] [F,,F,][F,B,D] | B,,[F,B,D] D,[F,B,D] | %9
 E,[G,B,E] ([D,D][=B,,=B,]) | [C,C][A,C] C,[B,C=E] | [F,A,CF] z [F,A,C_E]2 | B,,[F,B,D] D,[F,B,D] | %13
 E,[G,B,E] ([D,D][_D,_D]) | [C,C][F,A,E] [F,,F,][F,A,E] | [B,,B,][F,B,D] [B,,B,][=B,,=B,] | %16
 [C,C][G,CE] [E,,E,][_G,,_G,] | [F,,F,][F,B,D] [G,,G,][G,=B,] | C,[G,_B,C] F,,[F,A,] |1 %19
 (B,2 F,2) :|2 [B,,B,]F, B,, z |: [C,C][F,A,E] F,,[F,A,E] | B,,[F,B,D] F,,[F,B,D] | %23
 F,,[F,A,E] F,,[F,A,] | (B,,/^C,/=E,/G,/ B,) z | C,[F,A,E] F,,[F,A,E] | B,,[F,B,D] FE | %27
[K:treble] [D^FAc]2 [Acd^f][cdfa] | [Bdg][K:bass]([G,,G,]/[_G,,_G,]/ [F,,F,]) z | %29
 C,[F,A,E] F,,[F,A,E] | B,,[F,B,D] F,,[F,B,D] | [F,A,]2 [E,A,]2 | A,2- A, D, | %33
 (C,/D,/E,/G,/-) (G,/_G,/F,) | (C/D/E/G/-) (G/_G/F) | F,,[F,B,] F,,[F,A,] |1 %36
 [B,,B,] z ([B,,B,][=B,,=B,]) :|2 (B,2 F,2) || [B,,B,][F,B,D] D,[F,B,D] | %39
 E,[G,B,E] ([D,D][_D,_D]) | [C,C][F,A,E] [F,,F,][F,A,E] | [B,,B,][F,B,D] [F,,F,][F,B,D] | %42
 B,,[F,B,D] D,[F,B,D] | E,[G,B,E] ([D,D][=B,,=B,]) | [C,C][A,C] C,[B,C=E] | [F,A,CF] z [F,A,C_E]2 | %46
 B,,[F,B,D] D,[F,B,D] | E,[G,B,E] ([D,D][_D,_D]) | [C,C][F,A,E] [F,,F,][F,A,E] | %49
 [B,,B,][F,B,D] [B,,B,][=B,,=B,] | [C,C][G,CE] [E,,E,][_G,,_G,] | [F,,F,][F,B,D] [G,,G,][G,=B,] | %52
 C,[G,_B,C] F,,[F,A,] | [B,,B,]F, B,, z |:[K:Eb]"^legato." ([E,,E,]G,,B,,E,) | ([E,,E,]G,B,E) | %56
 [A,,A,][A,CEF] [A,,A,][=A,,=A,] | ([B,,B,][=A,,=A,] [_A,,_A,][B,,,B,,]) | ([E,,E,]G,,B,,E,) | %59
 ([E,,E,]G,B,[E,E]) | [D,D][B,DG] [^F,,^F,][CD^F] | [G,,G,][B,DG]- [B,DG][B,,B,] | %62
 ([E,,E,]G,,B,,E,) | ([E,,E,]G,B,E) | [=E,,=E,][B,C=E] [C,,C,][B,CE] | %65
 [F,,F,][A,CF] [A,,A,][A,CF] |[K:treble] [=Ace_g] z (_G/D/E/C/) |[K:bass] [=A,CE_G] z _G,2 | %68
 (=G,2 C,2) |1 [C,,C,][B,,,B,,] [E,,E,] z :|2 [C,,C,][B,,,B,,] [E,,E,]!^![B,,,B,,] |: %71
 [F,,F,][A,B,D] [B,,,B,,][A,B,D] | [F,,F,][A,B,D] ([F,,F,]/[B,,B,]/[=A,,=A,]/[_A,,_A,]/) | %73
 [G,,G,][G,B,E] [E,,E,][G,B,E] | [G,,G,][G,B,E] ([E,,E,]/[D,,D,]/[E,,E,]/[F,,F,]/) | %75
 [_G,,_G,][G,B,_D] [=G,,=G,][E,G,B,D] | %76
 [_A,,_A,][E,A,_C] ([_C,,_C,]/[=C,,=C,]/[_D,,_D,]/[=D,,=D,]/) | [E,,E,][_G,B,E] [_C,,_C,]2 | %78
 [B,,,B,,] z z !^![B,,,B,,] | [F,,F,][A,B,D] [B,,,B,,][A,B,D] | %80
 [F,,F,][A,B,D] ([F,,F,]/[B,,B,]/[=A,,=A,]/[_A,,_A,]/) | [G,,G,][G,B,E] [E,,E,][G,B,E] | %82
 [E,,E,][G,B,E] [G,B,E][B,,,B,,] | [E,,E,]/[E,,E,][D,,D,]/- [D,,D,][_D,,_D,] | %84
 [C,,C,][C,,C,] [C,,C,]2 | [_C,,_C,]/[C,,C,][B,,,B,,]/- [B,,,B,,]2 |1 [E,,E,] z z !^![B,,,B,,] :|2 %87
 [E,,E,]B,, E,, z |] %88
V:3
 x4 | x4 | x4 | x4 |: x4 | x4 | A>[Ae]- [Ae]2 | B>[Bd]- [Bd]2 | x4 | x2 FF | F>B- B2 | x4 | x4 | %13
 x4 | A>[Ae]- [Ae]2 | B>[Bd]- [Bd][_Ad] | f/ec'/- x x | x2 [GB][F=B] | [=E_B]>[FA]- [FA][_EA] |1 %19
 x4 :|2 x4 |: x4 | x4 | x2 E>^C- | x4 | x4 | x4 | x3/2!8va(! x5/2 | x!8va)! x3 | x4 | x4 | %31
 x2 (C<^C) | x4 | x4 | x4 | x2 [EA][EA] |1 x4 :|2 x4 || x4 | x4 | A>[Ae]- [Ae]2 | B>[Bd]- [Bd]2 | %42
 x4 | x2 FF | F>B- B2 | x4 | x4 | x4 | A>[A-e] [Ae]2 | B>[Bd]- [Bd][_Ad] | f/ec'/- x2 | %51
 x2 [GB][F=B] | [=E_B]>[FA]- [FA][_EA] | x4 |:[K:Eb] x4 | x4 | x4 | G[^Fce] (BA) | x4 | x4 | %60
 x!8va(! x3!8va)! | x4 | x4 | x4 | x4 | x4 | x4 | x4 | x2 [CE][B,=E] |1 [=A,_E][_A,D] x2 :|2 %70
 [=A,_E][_A,D] x x |: x4 | x4 | x4 | x4 | x4 | x4 | x4 | x4 | x4 | x4 | x4 | x4 | x4 | %84
 x2 [=A,_E]2 | x2 [A,D]2 |1 x4 :|2 x4 |] %88
V:4
 x4 | x4 | x4 | x4 |: x4 | x4 | x4 | x4 | x4 | x4 | x4 | x4 | x4 | x4 | x4 | x4 | x4 | x4 | x4 |1 %19
 (B,,/D,/E,/=E,/) (F,/^F,/G,/A,/) :|2 x4 |: x4 | x4 | x4 | x4 | x4 | x4 |[K:treble] x4 | %28
 x[K:bass] x3 | x4 | x4 | x4 | D,{/^G,,}A,,D,, D, | x4 | x4 | x4 |1 x4 :|2 %37
 (B,,/D,/E,/=E,/) (F,/^F,/G,/A,/) || x4 | x4 | x4 | x4 | x4 | x4 | x4 | x4 | x4 | x4 | x4 | x4 | %50
 x4 | x4 | x4 | x4 |:[K:Eb] x4 | x4 | x4 | x4 | x4 | x4 | x4 | x4 | x4 | x4 | x4 | x4 | %66
[K:treble] x4 |[K:bass] x4 | x4 |1 x4 :|2 x4 |: x4 | x4 | x4 | x4 | x4 | x4 | x4 | x4 | x4 | x4 | %81
 x4 | x4 | x4 | x4 | x4 |1 x4 :|2 x4 |] %88

